X:1
T:Title
%%score ( 1 2 ) ( 3 4 )
L:1/8
M:4/4
K:D
V:1 treble nm="Choir Aahs, Staff"
V:2 treble 
V:3 bass nm="Choir Aahs, Staff-1"
V:4 bass 
V:1
 [Fd]4 [EA]2 [CF]2 | [B,D]6 [DF]2 | [DG]2 [DA]2 [DB]2 [GB]2 | z4 z2 B2 | [EA]2 E2 [DF]2 [D^G]2 | %5
w: By~Melchior~Franck;~harm.~Charles~Wood,~1904 * *|||||
 [EA]6 z2 | [Fd]4 [EA]2 [CF]2 | [B,D]6 [DF]2 | [DG]2 [DA]2 [DB]2 [GB]2 | z4 z2 B2 | %10
w: |||||
 [EA]2 E2 [DF]2 [D^G]2 | [EA]6 z2 | [GB]2 [GB]2- [GB]/ z/ [Gc] [Ad]2 | [GB]2 [EA]4 [DF]2 | %14
w: ||||
 [FA]2 [GB]2 [EA]2 [DG]2 | [DF]2 [CE]4 [Dd]2- | [Dd]2 [GB]2 [FA]2 [EG]2 | z4 .F2 z2 | %18
w: ||||
 [DF]2 [DG]2 [DF]2 [DE]2 | [CE]2 D6- | D2 z2 z4 |] %21
w: |||
V:2
 x8 | x8 | x8 | [FA]4 z2 GF | x8 | x8 | x8 | x8 | x8 | [FA]4 z2 GF | x8 | x8 | x8 | x8 | x8 | x8 | %16
 x8 | [DF]2 [CE]2 D-[DG] [EA]2 | x8 | x8 | x8 |] %21
V:3
 A,4 [C,A,]2 [A,,A,]2 | [B,,F,]6 B,2 | [G,B,]2 [F,A,]2 G,2 [B,,D]2 | [D,D]4 z2 [G,,D]2 | %4
 [A,,C]2 [C,A,]2 [D,A,]2 [B,,B,]2 | [A,,C]6 z2 | A,4 [C,A,]2 [A,,A,]2 | [B,,F,]6 B,2 | %8
 [G,B,]2 [F,A,]2 G,2 [B,,D]2 | [D,D]4 z2 [G,,D]2 | [A,,C]2 [C,A,]2 [D,A,]2 [B,,B,]2 | [A,,C]6 z2 | %12
 [G,,D]2 [G,D]2- [G,D]/ z/ [E,E] [F,D]2 | [G,D]2 [A,C]4 [D,A,]2 | [D,D]2 [G,,D]2 [A,,C]2 [B,,B,]2 | %15
 [D,A,]2 [A,,A,]4 [F,A,]2- | [F,A,]2 [G,D]2 [F,D]2 [E,B,]2 | [F,A,]2 A,2 A,B, C,2 | %18
 [D,A,]2 [B,,B,]2 [D,A,]2 [A,,A,]2 | [A,,A,]2 [D,F,]6- | [D,F,]2 z2 z4 |] %21
V:4
 x8 | x8 | x8 | x8 | x8 | x8 | x8 | x8 | x8 | x8 | x8 | x8 | x8 | x8 | x8 | x8 | x8 | z4 D,2 z2 | %18
 x8 | x8 | x8 |] %21

